!!!id: BC030
!!!page: 40-41t
!!!COM: Anonymous (Folklore)
!!!PTL@@FR: Les 100 plus belles chansons
!!!OTL@@FR: Le p'tit cordonnier
!!!PUB: La Bonne Chanson, inc.
!!!YEM: On ne peut reproduire, enregistrer ou diffuser en tout ou en partie le présent ouvrage, sous quelque procédé que ce soit, électronique, mécanique, photographique, sonore, magnétique ou autre, sans avoir obtenu au préalable l'autorisation écrite de l'éditrice.
!!!PDT: 2011
!!!SMA: 2012 Bibliothèque nationale du Québec; Biblothèque nationale du Canada
!!!AGN-Laforte: Chanson énumeérative, 4:2(8)+R3(6)
!!!AGN-type: Chanson de métier
!!!AGN-rime: suivies (aa)
**kern
*k[b-]
*F:
*M6/8
*
*
!!LO:TX:a:t=Solo
{8f
8f
8f
=1
4f
8c
4f
4a
=2
4.cc}
*^
!!LO:TX:a:t=Chœur:qo=-1
{8b-	8g
8b-	8g
8b-	8g
!!LO:PB:g=original
=3	=3
4a	4f
8a	8f
4g	4e
8g	8e
=4	=4
4f	4f
*v	*v
8r}
!!LO:TX:a:t=Solo
{8f
8f
8f
=5
4f
8c
4f
8a
!!LO:PB:g=original
=6
4.cc}
*^
!!LO:TX:a:t=Chœur:qo=-1
{8b-	8g
8b-	8g
8b-	8g
=7	=7
4a	4f
8a	8f
4g	4c
8g	8c
=8	=8
[4.f	[4.f
8f]	8f]
*v	*v
8r
*^
!!LO:TX:a:t=Solo
8cc	8a
!!LO:PB:g=original
=9	=9
4cc	4a
8cc	8a
4dd	4b-
8dd	8b-
=10	=10
4cc	4a
!!LO:TX:a:t=Chœur
8r	8cc
4r	4cc
!!LO:TX:a:t=Solo
8cc	8a
=11	=11
4cc	4a
8cc	8a
4dd	4b-
8dd	8b-
!!LO:PB:g=original
=12	=12
4cc	4a
!!LO:TX:a:t=Chœur
8r	8cc
4r	4cc
*v	*v
!!LO:TX:a:t=Solo
8c
=13
4f
8g
4a
8b-
=14
4cc
8r
*^
!!LO:TX:a:t=Chœur
8ff	8f
*v	*v
8r
8r
*^
4cc	8a
8b-	8g
4a	4f
8g	8e
=16	=16
4f	4f
*v	*v
8r
==
*-
